images/prop6.svg

<svg version="1.1" xmlns="http://www.w3.org/2000/svg" xmlns:xlink="http://www.w3.org/1999/xlink" width="1148" height="700"><defs><clipPath id="SAQznVLVbGvn"><path fill="none" stroke="none" d=" M 0 0 L 1148 0 L 1148 700 L 0 700 L 0 0 Z"/></clipPath></defs><g transform="scale(1,1)" clip-path="url(#SAQznVLVbGvn)"><g><rect fill="rgb(255,255,255)" stroke="none" x="0" y="0" width="1148" height="700" fill-opacity="1"/><path fill="rgb(153,51,0)" stroke="none" paint-order="stroke fill markers" fill-rule="evenodd" d=" M 530.9888297724414 101.80937491308217 L 358.6145389380522 526.8687057206071 L 719.033510682684 524.9099069611254 Z" fill-opacity="0.09803921568627451"/><path fill="none" stroke="rgb(153,51,0)" paint-order="fill stroke markers" d=" M 530.9888297724414 101.80937491308217 L 358.6145389380522 526.8687057206071" stroke-opacity="0.6980392156862745" stroke-linecap="round" stroke-linejoin="round" stroke-miterlimit="10" stroke-width="2.5"/><path fill="none" stroke="rgb(153,51,0)" paint-order="fill stroke markers" d=" M 358.6145389380522 526.8687057206071 L 719.033510682684 524.9099069611254" stroke-opacity="0.6980392156862745" stroke-linecap="round" stroke-linejoin="round" stroke-miterlimit="10" stroke-width="2.5"/><path fill="none" stroke="rgb(153,51,0)" paint-order="fill stroke markers" d=" M 719.033510682684 524.9099069611254 L 530.9888297724414 101.80937491308217" stroke-opacity="0.6980392156862745" stroke-linecap="round" stroke-linejoin="round" stroke-miterlimit="10" stroke-width="2.5"/><path fill="none" stroke="rgb(0,0,0)" paint-order="fill stroke markers" d=" M 719.033510682684 524.9099069611254 L 474.25916562097075 241.69956946841214" stroke-opacity="0.6980392156862745" stroke-linecap="round" stroke-linejoin="round" stroke-miterlimit="10" stroke-width="2.5"/><path fill="rgb(77,77,255)" stroke="none" paint-order="stroke fill markers" d=" M 535.9888297724414 101.80937491308217 C 535.9888297724414 104.57079866223613 533.7502535215954 106.80937491308217 530.9888297724414 106.80937491308217 C 528.2274060232874 106.80937491308217 525.9888297724414 104.57079866223613 525.9888297724414 101.80937491308217 C 525.9888297724414 99.0479511639282 528.2274060232874 96.80937491308217 530.9888297724414 96.80937491308217 C 533.7502535215954 96.80937491308217 535.9888297724414 99.0479511639282 535.9888297724414 101.80937491308217 Z" fill-opacity="1"/><path fill="none" stroke="rgb(0,0,0)" paint-order="fill stroke markers" d=" M 535.9888297724414 101.80937491308217 C 535.9888297724414 104.57079866223613 533.7502535215954 106.80937491308217 530.9888297724414 106.80937491308217 C 528.2274060232874 106.80937491308217 525.9888297724414 104.57079866223613 525.9888297724414 101.80937491308217 C 525.9888297724414 99.0479511639282 528.2274060232874 96.80937491308217 530.9888297724414 96.80937491308217 C 533.7502535215954 96.80937491308217 535.9888297724414 99.0479511639282 535.9888297724414 101.80937491308217 Z" stroke-opacity="1" stroke-linecap="round" stroke-linejoin="round" stroke-miterlimit="10"/><text fill="rgb(77,77,255)" stroke="none" font-family="geogebra-sans-serif, sans-serif" font-size="16px" font-style="normal" font-weight="normal" text-decoration="normal" x="535" y="92" text-anchor="start" dominant-baseline="alphabetic" fill-opacity="1">A</text><text fill="rgb(77,77,255)" stroke="none" font-family="geogebra-sans-serif, sans-serif" font-size="16px" font-style="normal" font-weight="normal" text-decoration="normal" x="535" y="92" text-anchor="start" dominant-baseline="alphabetic" fill-opacity="1">A</text><path fill="rgb(77,77,255)" stroke="none" paint-order="stroke fill markers" d=" M 363.6145389380522 526.8687057206071 C 363.6145389380522 529.6301294697611 361.37596268720614 531.8687057206071 358.6145389380522 531.8687057206071 C 355.85311518889824 531.8687057206071 353.6145389380522 529.6301294697611 353.6145389380522 526.8687057206071 C 353.6145389380522 524.1072819714531 355.85311518889824 521.8687057206071 358.6145389380522 521.8687057206071 C 361.37596268720614 521.8687057206071 363.6145389380522 524.1072819714531 363.6145389380522 526.8687057206071 Z" fill-opacity="1"/><path fill="none" stroke="rgb(0,0,0)" paint-order="fill stroke markers" d=" M 363.6145389380522 526.8687057206071 C 363.6145389380522 529.6301294697611 361.37596268720614 531.8687057206071 358.6145389380522 531.8687057206071 C 355.85311518889824 531.8687057206071 353.6145389380522 529.6301294697611 353.6145389380522 526.8687057206071 C 353.6145389380522 524.1072819714531 355.85311518889824 521.8687057206071 358.6145389380522 521.8687057206071 C 361.37596268720614 521.8687057206071 363.6145389380522 524.1072819714531 363.6145389380522 526.8687057206071 Z" stroke-opacity="1" stroke-linecap="round" stroke-linejoin="round" stroke-miterlimit="10"/><text fill="rgb(77,77,255)" stroke="none" font-family="geogebra-sans-serif, sans-serif" font-size="16px" font-style="normal" font-weight="normal" text-decoration="normal" x="363" y="517" text-anchor="start" dominant-baseline="alphabetic" fill-opacity="1">B</text><text fill="rgb(77,77,255)" stroke="none" font-family="geogebra-sans-serif, sans-serif" font-size="16px" font-style="normal" font-weight="normal" text-decoration="normal" x="363" y="517" text-anchor="start" dominant-baseline="alphabetic" fill-opacity="1">B</text><path fill="rgb(77,77,255)" stroke="none" paint-order="stroke fill markers" d=" M 724.033510682684 524.9099069611254 C 724.033510682684 527.6713307102794 721.794934431838 529.9099069611254 719.033510682684 529.9099069611254 C 716.27208693353 529.9099069611254 714.033510682684 527.6713307102794 714.033510682684 524.9099069611254 C 714.033510682684 522.1484832119714 716.27208693353 519.9099069611254 719.033510682684 519.9099069611254 C 721.794934431838 519.9099069611254 724.033510682684 522.1484832119714 724.033510682684 524.9099069611254 Z" fill-opacity="1"/><path fill="none" stroke="rgb(0,0,0)" paint-order="fill stroke markers" d=" M 724.033510682684 524.9099069611254 C 724.033510682684 527.6713307102794 721.794934431838 529.9099069611254 719.033510682684 529.9099069611254 C 716.27208693353 529.9099069611254 714.033510682684 527.6713307102794 714.033510682684 524.9099069611254 C 714.033510682684 522.1484832119714 716.27208693353 519.9099069611254 719.033510682684 519.9099069611254 C 721.794934431838 519.9099069611254 724.033510682684 522.1484832119714 724.033510682684 524.9099069611254 Z" stroke-opacity="1" stroke-linecap="round" stroke-linejoin="round" stroke-miterlimit="10"/><text fill="rgb(77,77,255)" stroke="none" font-family="geogebra-sans-serif, sans-serif" font-size="16px" font-style="normal" font-weight="normal" text-decoration="normal" x="723" y="515" text-anchor="start" dominant-baseline="alphabetic" fill-opacity="1">C</text><text fill="rgb(77,77,255)" stroke="none" font-family="geogebra-sans-serif, sans-serif" font-size="16px" font-style="normal" font-weight="normal" text-decoration="normal" x="723" y="515" text-anchor="start" dominant-baseline="alphabetic" fill-opacity="1">C</text><path fill="rgb(125,125,255)" stroke="none" paint-order="stroke fill markers" d=" M 479.25916562097075 241.69956946841214 C 479.25916562097075 244.4609932175661 477.0205893701247 246.69956946841214 474.25916562097075 246.69956946841214 C 471.4977418718168 246.69956946841214 469.25916562097075 244.4609932175661 469.25916562097075 241.69956946841214 C 469.25916562097075 238.93814571925816 471.4977418718168 236.69956946841214 474.25916562097075 236.69956946841214 C 477.0205893701247 236.69956946841214 479.25916562097075 238.93814571925816 479.25916562097075 241.69956946841214 Z" fill-opacity="1"/><path fill="none" stroke="rgb(0,0,0)" paint-order="fill stroke markers" d=" M 479.25916562097075 241.69956946841214 C 479.25916562097075 244.4609932175661 477.0205893701247 246.69956946841214 474.25916562097075 246.69956946841214 C 471.4977418718168 246.69956946841214 469.25916562097075 244.4609932175661 469.25916562097075 241.69956946841214 C 469.25916562097075 238.93814571925816 471.4977418718168 236.69956946841214 474.25916562097075 236.69956946841214 C 477.0205893701247 236.69956946841214 479.25916562097075 238.93814571925816 479.25916562097075 241.69956946841214 Z" stroke-opacity="1" stroke-linecap="round" stroke-linejoin="round" stroke-miterlimit="10"/><text fill="rgb(125,125,255)" stroke="none" font-family="geogebra-sans-serif, sans-serif" font-size="16px" font-style="normal" font-weight="normal" text-decoration="normal" x="478" y="232" text-anchor="start" dominant-baseline="alphabetic" fill-opacity="1">D</text><text fill="rgb(125,125,255)" stroke="none" font-family="geogebra-sans-serif, sans-serif" font-size="16px" font-style="normal" font-weight="normal" text-decoration="normal" x="478" y="232" text-anchor="start" dominant-baseline="alphabetic" fill-opacity="1">D</text></g></g></svg>

<?xml version="1.0" encoding="UTF-8" standalone="no"?>
<svg
   version="1.1"
   width="419.41089"
   height="488.61383"
   id="svg55"
   sodipodi:docname="prop6.svg"
   inkscape:version="1.1.2 (b8e25be833, 2022-02-05)"
   xmlns:inkscape="http://www.inkscape.org/namespaces/inkscape"
   xmlns:sodipodi="http://sodipodi.sourceforge.net/DTD/sodipodi-0.dtd"
   xmlns="http://www.w3.org/2000/svg"
   xmlns:svg="http://www.w3.org/2000/svg">
  <sodipodi:namedview
     id="namedview57"
     pagecolor="#ffffff"
     bordercolor="#666666"
     borderopacity="1.0"
     inkscape:pageshadow="2"
     inkscape:pageopacity="0.0"
     inkscape:pagecheckerboard="0"
     showgrid="false"
     inkscape:zoom="1.1542857"
     inkscape:cx="247.33911"
     inkscape:cy="211.81931"
     inkscape:window-width="1920"
     inkscape:window-height="1001"
     inkscape:window-x="-9"
     inkscape:window-y="-9"
     inkscape:window-maximized="1"
     inkscape:current-layer="g51" />
  <defs
     id="defs5">
    <clipPath
       id="SAQznVLVbGvn">
      <path
         fill="none"
         stroke="none"
         d="M 0,0 H 1148 V 700 H 0 Z"
         id="path2" />
    </clipPath>
  </defs>
  <g
     clip-path="url(#SAQznVLVbGvn)"
     id="g53"
     transform="translate(-326.60892,-68.440598)">
    <g
       id="g51">
      <rect
         fill="#ffffff"
         stroke="none"
         x="326.60892"
         y="68.440598"
         width="419.41089"
         height="488.61383"
         fill-opacity="1"
         id="rect7"
         style="stroke-width:0.999992" />
      <path
         fill="#993300"
         stroke="none"
         paint-order="stroke fill markers"
         fill-rule="evenodd"
         d="m 530.98883,101.80937 -172.37429,425.05934 360.41897,-1.9588 z"
         fill-opacity="0.0980392"
         id="path9" />
      <path
         fill="none"
         stroke="#993300"
         paint-order="fill stroke markers"
         d="M 530.98883,101.80937 358.61454,526.86871"
         stroke-opacity="0.698039"
         stroke-linecap="round"
         stroke-linejoin="round"
         stroke-miterlimit="10"
         stroke-width="2.5"
         id="path11" />
      <path
         fill="none"
         stroke="#993300"
         paint-order="fill stroke markers"
         d="m 358.61454,526.86871 360.41897,-1.9588"
         stroke-opacity="0.698039"
         stroke-linecap="round"
         stroke-linejoin="round"
         stroke-miterlimit="10"
         stroke-width="2.5"
         id="path13" />
      <path
         fill="none"
         stroke="#993300"
         paint-order="fill stroke markers"
         d="M 719.03351,524.90991 530.98883,101.80937"
         stroke-opacity="0.698039"
         stroke-linecap="round"
         stroke-linejoin="round"
         stroke-miterlimit="10"
         stroke-width="2.5"
         id="path15" />
      <path
         fill="none"
         stroke="#000000"
         paint-order="fill stroke markers"
         d="M 719.03351,524.90991 474.25917,241.69957"
         stroke-opacity="0.698039"
         stroke-linecap="round"
         stroke-linejoin="round"
         stroke-miterlimit="10"
         stroke-width="2.5"
         id="path17" />
      <path
         fill="#4d4dff"
         stroke="none"
         paint-order="stroke fill markers"
         d="m 535.98883,101.80937 c 0,2.76143 -2.23858,5 -5,5 -2.76142,0 -5,-2.23857 -5,-5 0,-2.761419 2.23858,-4.999995 5,-4.999995 2.76142,0 5,2.238576 5,4.999995 z"
         fill-opacity="1"
         id="path19" />
      <path
         fill="none"
         stroke="#000000"
         paint-order="fill stroke markers"
         d="m 535.98883,101.80937 c 0,2.76143 -2.23858,5 -5,5 -2.76142,0 -5,-2.23857 -5,-5 0,-2.761419 2.23858,-4.999995 5,-4.999995 2.76142,0 5,2.238576 5,4.999995 z"
         stroke-opacity="1"
         stroke-linecap="round"
         stroke-linejoin="round"
         stroke-miterlimit="10"
         id="path21" />
      <text
         fill="#4d4dff"
         stroke="none"
         font-family="geogebra-sans-serif, sans-serif"
         font-size="16px"
         font-style="normal"
         font-weight="normal"
         text-decoration="normal"
         x="535"
         y="92"
         text-anchor="start"
         dominant-baseline="alphabetic"
         fill-opacity="1"
         id="text23">A</text>
      <text
         fill="#4d4dff"
         stroke="none"
         font-family="geogebra-sans-serif, sans-serif"
         font-size="16px"
         font-style="normal"
         font-weight="normal"
         text-decoration="normal"
         x="535"
         y="92"
         text-anchor="start"
         dominant-baseline="alphabetic"
         fill-opacity="1"
         id="text25">A</text>
      <path
         fill="#4d4dff"
         stroke="none"
         paint-order="stroke fill markers"
         d="m 363.61454,526.86871 c 0,2.76142 -2.23858,5 -5,5 -2.76142,0 -5,-2.23858 -5,-5 0,-2.76143 2.23858,-5 5,-5 2.76142,0 5,2.23857 5,5 z"
         fill-opacity="1"
         id="path27" />
      <path
         fill="none"
         stroke="#000000"
         paint-order="fill stroke markers"
         d="m 363.61454,526.86871 c 0,2.76142 -2.23858,5 -5,5 -2.76142,0 -5,-2.23858 -5,-5 0,-2.76143 2.23858,-5 5,-5 2.76142,0 5,2.23857 5,5 z"
         stroke-opacity="1"
         stroke-linecap="round"
         stroke-linejoin="round"
         stroke-miterlimit="10"
         id="path29" />
      <text
         fill="#4d4dff"
         stroke="none"
         font-family="geogebra-sans-serif, sans-serif"
         font-size="16px"
         font-style="normal"
         font-weight="normal"
         text-decoration="normal"
         x="363"
         y="517"
         text-anchor="start"
         dominant-baseline="alphabetic"
         fill-opacity="1"
         id="text31">B</text>
      <text
         fill="#4d4dff"
         stroke="none"
         font-family="geogebra-sans-serif, sans-serif"
         font-size="16px"
         font-style="normal"
         font-weight="normal"
         text-decoration="normal"
         x="363"
         y="517"
         text-anchor="start"
         dominant-baseline="alphabetic"
         fill-opacity="1"
         id="text33">B</text>
      <path
         fill="#4d4dff"
         stroke="none"
         paint-order="stroke fill markers"
         d="m 724.03351,524.90991 c 0,2.76142 -2.23858,5 -5,5 -2.76142,0 -5,-2.23858 -5,-5 0,-2.76143 2.23858,-5 5,-5 2.76142,0 5,2.23857 5,5 z"
         fill-opacity="1"
         id="path35" />
      <path
         fill="none"
         stroke="#000000"
         paint-order="fill stroke markers"
         d="m 724.03351,524.90991 c 0,2.76142 -2.23858,5 -5,5 -2.76142,0 -5,-2.23858 -5,-5 0,-2.76143 2.23858,-5 5,-5 2.76142,0 5,2.23857 5,5 z"
         stroke-opacity="1"
         stroke-linecap="round"
         stroke-linejoin="round"
         stroke-miterlimit="10"
         id="path37" />
      <text
         fill="#4d4dff"
         stroke="none"
         font-family="geogebra-sans-serif, sans-serif"
         font-size="16px"
         font-style="normal"
         font-weight="normal"
         text-decoration="normal"
         x="723"
         y="515"
         text-anchor="start"
         dominant-baseline="alphabetic"
         fill-opacity="1"
         id="text39">C</text>
      <text
         fill="#4d4dff"
         stroke="none"
         font-family="geogebra-sans-serif, sans-serif"
         font-size="16px"
         font-style="normal"
         font-weight="normal"
         text-decoration="normal"
         x="723"
         y="515"
         text-anchor="start"
         dominant-baseline="alphabetic"
         fill-opacity="1"
         id="text41">C</text>
      <path
         fill="#7d7dff"
         stroke="none"
         paint-order="stroke fill markers"
         d="m 479.25917,241.69957 c 0,2.76142 -2.23858,5 -5,5 -2.76143,0 -5,-2.23858 -5,-5 0,-2.76142 2.23857,-5 5,-5 2.76142,0 5,2.23858 5,5 z"
         fill-opacity="1"
         id="path43" />
      <path
         fill="none"
         stroke="#000000"
         paint-order="fill stroke markers"
         d="m 479.25917,241.69957 c 0,2.76142 -2.23858,5 -5,5 -2.76143,0 -5,-2.23858 -5,-5 0,-2.76142 2.23857,-5 5,-5 2.76142,0 5,2.23858 5,5 z"
         stroke-opacity="1"
         stroke-linecap="round"
         stroke-linejoin="round"
         stroke-miterlimit="10"
         id="path45" />
      <text
         fill="#7d7dff"
         stroke="none"
         font-family="geogebra-sans-serif, sans-serif"
         font-size="16px"
         font-style="normal"
         font-weight="normal"
         text-decoration="normal"
         x="478"
         y="232"
         text-anchor="start"
         dominant-baseline="alphabetic"
         fill-opacity="1"
         id="text47">D</text>
      <text
         fill="#7d7dff"
         stroke="none"
         font-family="geogebra-sans-serif, sans-serif"
         font-size="16px"
         font-style="normal"
         font-weight="normal"
         text-decoration="normal"
         x="478"
         y="232"
         text-anchor="start"
         dominant-baseline="alphabetic"
         fill-opacity="1"
         id="text49">D</text>
    </g>
  </g>
</svg>
